X: 55
T: Esperanza
C: Marc Perrone
M: 4/4
L: 1/8
R: schottisch
K: Amin
|: "Am"A2 Ac e2 ec | AEAc e4 | AAAc e2 fe | dcBA "E7/B"^G4 |
"E7"BBBc d2 dc | BA^GA B4 |1 BBBc d2 ed | cBAB "Am" c4 :|2 BBBc d2 ef | edcB "A7"A4 ||
|: "Dm"ffff e2 df | -f4 z4 | "Am"eeee d2 ce|-e4 z3 A | "E7"dddd c2 Bd|-d B2 ^G E4 |
[1 edcB A2 Bc|"Am"-cABc "A7"d2 e2 :|2 edcB A2 ^GA | "Am" -A4 z4 |]

